X:45
T:45.  So Glad To Know You
C:c 2003 Harry Bolick  
R:
O:United States
A:Hastings-On-Hudson, New York
M:4/4
L:1/8
Q:250
K:D
 AB c|: "D" d2 z  c BA Bc  | dD DD D(D FA) |  d2 c  B2 A GF | "A" Ec B(A A2)  (3(ABc)|
"D" d2 c"D7"B2 AG F |"G"  E2 D  (B,B,4) | "D" (A,B,) DE FD EF |[1 "Em" G2 "A" F2 "D"D2 (3(ABc) :| [2 "Em" G2"A" F2 "D"D2 (3(DFA) |] 
"D"f3 d fb af | a2 f d2 g (fe) |"A" e3 f g(f e)d |  .c a2 .c a2 (3(ABc) |
"D" dc de "Bm" fd ef | "Em"  ge fg "F#m" a3a |"G" b f2 d "A"fe dc |
"D" d4 z  A Bd | "Em" e3 f  gf ed | "F#m"cB AG  F2 FD | E "G" G2 .G  .GF ED |
"D" F A2 A AA Bd | "Em" e3 f  gf ed | "F#m"cB AG   F2FD |E "G" c2B2 "A"  A Bc | "D" dD DD DA Bc |
